libs/icons/svgs/formula.svg

<svg viewBox="0 0 24 24"  xmlns="http://www.w3.org/2000/svg">
<path d="M12.42 5.02037C11.8907 4.97323 11.3645 5.13864 10.9574 5.4801C10.5502 5.82155 10.2957 6.31098 10.25 6.84037L10 9.73037H12.82V11.7304H9.82L9.38 16.8004C9.22773 18.5139 7.99695 19.9381 6.32361 20.3372C4.65027 20.7363 2.90918 20.0207 2 18.5604L3.5 17.0604C3.78848 17.9715 4.68125 18.5512 5.63093 18.4441C6.5806 18.3369 7.32178 17.5729 7.4 16.6204L7.82 11.7304H4.82V9.73037H8L8.27 6.66037C8.41666 4.94067 9.64983 3.50897 11.3288 3.1091C13.0078 2.70924 14.7539 3.43139 15.66 4.90037L14.16 6.40037C13.9121 5.63103 13.2256 5.0865 12.42 5.02037ZM22 13.3804L20.59 11.9704L17.76 14.8004L14.93 11.9704L13.52 13.3804L16.35 16.2104L13.52 19.0404L14.93 20.4504L17.76 17.6204L20.59 20.4504L22 19.0404L19.17 16.2104L22 13.3804Z" />
</svg>

<svg xmlns="http://www.w3.org/2000/svg" width="24" height="24">
    <path d="M12.42 5.02a2 2 0 0 0-2.17 1.82L10 9.73h2.82v2h-3l-.44 5.07A4 4 0 0 1 2 18.56l1.5-1.5a2 2 0 0 0 3.9-.44l.42-4.89h-3v-2H8l.27-3.07a4 4 0 0 1 7.39-1.76l-1.5 1.5a2 2 0 0 0-1.74-1.38zM22 13.38l-1.41-1.41-2.83 2.83-2.83-2.83-1.41 1.41 2.83 2.83-2.83 2.83 1.41 1.41 2.83-2.83 2.83 2.83L22 19.04l-2.83-2.83L22 13.38z"/>
</svg>
